!!!COM: Bach, Johann Sebastian
!!!CDT: 1685/3//-1750/7/28/
!!!OTL@@DE: Christus ist erstanden, hat ueberwunden
!!!OTL@EN:  Christ is risen, has conquered
!!!AGN: 4-Part Chorale
!!!SCT: BH 200
!!!SCT: BWV 284
**harm	**root	**kern	**kern	**kern	**kern
*	*Iorgan	*Iorgan	*Iorgan	*Iorgan	*Iorgan
!	!	!bass	!tenor	!alto	!soprno
*	*	*clefF4	*clefF4	*clefG2	*clefG2
*M4/4	*M4/4	*M4/4	*M4/4	*M4/4	*M4/4
*met(c)	*met(c)	*met(c)	*met(c)	*met(c)	*met(c)
*MM60	*MM60	*MM60	*MM60	*MM60	*MM60
*k[]	*k[]	*k[]	*k[]	*k[]	*k[]
*C:	*C:	*C:	*C:	*C:	*C:
=1-	=1-	=1-	=1-	=1-	=1-
I	4CC	4c	4e	4g	4cc
Vb	4GG	4B	4d	[4g	4g
vii/V	4FF#	4A	4c	8g]	4a
.	.	.	.	8f#	.
V	4GG	8G	4d	4g	4b
.	.	8F	.	.	.
=2	=2	=2	=2	=2	=2
Ib	4CC	4E	8c	4.g	2cc
.	.	.	8B-	.	.
IV	4FF	4F	4A	.	.
.	.	.	.	[8fn	.
I;	4CC;	4C;	4G;	8f]	4cc;
.	.	.	.	8e;	.
V/IV	4CC	8c	4c	[4e	4g
.	.	8B-	.	.	.
=3	=3	=3	=3	=3	=3
vi	8AA	4A	4c	8e]	4cc
viiob/V	8FF#	.	.	8f#	.
v	4GG	4G	4d	4g	4b-
iio7b/v	4AA	4C	4e-	4g	2a
V/V	4DD	4D	8d	4f#	.
.	.	.	8c	.	.
=4	=4	=4	=4	=4	=4
v;	2GG;	2GG;	2B-;	2d;	2g;
v	4GG	4G	4B-	8d	4g
.	.	.	.	4e-	.
viioD7/v	8FF#	4F#	4c	.	4a
V7b/v	8DD	.	.	[8d	.
=5	=5	=5	=5	=5	=5
v	4GG	4G	8B-	8d]	4b-
.	.	.	8G	8b-	.
iv/v	4CC	4C	4e-	8a	4cc
.	.	.	.	8g	.
Vc	4GG	4D	[4d	8f#	4b-
.	.	.	.	4g	.
V/v	4DD	4DD	8.d]	.	4a
.	.	.	.	8f#	.
.	.	.	16c	.	.
!!linebreak: 3
=6	=6	=6	=6	=6	=6
v;	2GG;	2GG;	2B-;	2d;	2g;
I	4CC	8C	[4c	8en	4g
.	.	8D	.	8f	.
Ib	4CC	8E	8c]	4g	4cc
.	.	8F	8d	.	.
=7	=7	=7	=7	=7	=7
Ic	4CC	4G	8e	4g	4cc
.	.	.	16d	.	.
.	.	.	16c	.	.
V	4GG	4GG	8d	4g	4b
.	.	.	[8f	.	.
I;	2CC;	2C;	8f]	2g;	2cc;
.	.	.	16e	.	.
.	.	.	16d	.	.
.	.	.	4e;	.	.
=8	=8	=8	=8	=8	=8
IV	4FF	8F	4f	4a	4cc
.	.	8G	.	.	.
IV	4FF	8F	4f	8a	4cc
.	.	8E	.	8g	.
ii	4DD	8D	8f	8f	4dd
.	.	8E	8e	8g	.
iib	4DD	8F	8d	[4a	4dd
.	.	8G	8e	.	.
=9	=9	=9	=9	=9	=9
IVb	4FF	8A	[4f	4a]	4cc
.	.	8F	.	.	.
ii7	8DD	8G	8f]	8b-	4b-
V7/IV	8CC	8C	8e	8g	.
IV;	2FF;	2F;	2c;	2f;	2a;
=10	=10	=10	=10	=10	=10
V/IV	4CC	8c	4c	4e	4g
.	.	8B-	.	.	.
vi	8AA	4A	4c	8e	4a
viiob/v	8FF#	.	.	8f#	.
v	4GG	8G	4d	[4g	4b-
.	.	8BB-	.	.	.
iio7b/v	8AA	8C	8e-	8g]	4a
V/v	8DD	8D	16d	8f#	.
.	.	.	16c	.	.
!!linebreak: 3
=11	=11	=11	=11	=11	=11
-III;	2EE-;	2E-;	2B-;	2g;	2g;
v	4GG	4G	8B-	8d	4b-
.	.	.	8d	[8b-	.
V/-VII	4FF	4F	4f	8b-]	4cc
.	.	.	.	8a	.
=12	=12	=12	=12	=12	=12
-VII	4BB-	8B-	4f	2b-	4dd
.	.	8A	.	.	.
IVb/-VII	8EE-	8G	8e-	.	8ee-
Ic/-VII	8BB-	8F	8f	.	8dd
ii7b/-VII	8CC	8E-	8g	4b-	2cc
ii7/-VII	8CC	8C	8e-	.	.
V/-VII	4FF	4F	8c	4a	.
.	.	.	8f	.	.
=13	=13	=13	=13	=13	=13
I/-VII;	2BB-;	2BB-;	2f;	2b-;	2dd;
I/-VII	4BB-	4B-y	4f	4.b-	4dd
V/-VII	4FF	4F	4f	.	4cc
.	.	.	.	8a	.
=14	=14	=14	=14	=14	=14
I/-VII	4BB-	8B-	4f	4b-	4dd
.	.	8A	.	.	.
iio7d/v	8AA	8G	8e-	4a	4cc
V7b/v	8DD	8F#	8d	.	.
v	4GG	8G	4d	4g	4b-
.	.	8A	.	.	.
V7d/IV	4CC	8B-	4c	4en	4g
.	.	8c	.	.	.
=15	=15	=15	=15	=15	=15
IV	4FF	4F	4c	8f	4a
.	.	.	.	8e	.
V7	4GG	4G	4G	8d	4bn
.	.	.	.	8f	.
I;	2CC;	2C;	2G;	2e;	2cc;
==	==	==	==	==	==
*-	*-	*-	*-	*-	*-
!!!YOR1: Ludwig Erk, Peters Editions of 1850, 1865; rev. in light of Friedrich
!!!YOR2: Smend, Peters Edition of 1932 & Albert Riemenschneider, 1941.
!!!RDT: 1987 September
!!!YER: 1995 March 1
!!chor2scor: -l 3 -s 0.6 -o %b.pmx
!!!YEC: Copyright 1994, David Huron
!!!YEC: Changes/Additions 2001 by Craig Stuart Sapp
!!!YEN: United States of America
!!!SMA: J.S. Bach Chorale Harmonizations, edited by Ludwig Erk, C.F. Peters
!!!PDT: 1850, 1865
